X:1
T:SIX IRISH FOLKSONGS.
T:
T:No. 4.   THE SWORD OF ERIN
T:(Air.- "Cruachan na feine)
T:Charles Villiers Stanford (1852-1924)
T:Thomas Moore(1779-1852)
T:SIX IRISH FOLKSONGS. No. 4.   THE SWORD OF ERIN (Air.- "Cruachan na feine)
T:Copyright © CPDL
T:(Op. 78)
T:Copyright © CPDL
T:Copyright © CPDL
T:Copyright © CPDL
T:Copyright © CPDL
C:Charles Villiers Stanford (1852-1924)
Z:Thomas Moore(1779-1852)
Z:Copyright © CPDL
%%score [ 1 2 3 ( 4 5 ) ]
L:1/8
Q:1/4=120
M:3/4
K:Eb
V:1 treble nm="Soprano" snm="S."
V:2 treble nm="Alto" snm="A."
V:3 treble-8 transpose=-12 nm="Tenor" snm="T."
V:4 bass nm="Bass" snm="B."
V:5 bass 
V:1
!f!"^Allegro con fuoco" G2 | c2 (cd) (ec) | d2 g3 f | e2 c2 c2 | B2 G2 G2 | c2 (cd) (ec) | %6
w: A-|veng- ing * and *|bright falls the|swift sword of|E- rin On|him who * the *|
 d2 g3 f | e2 c2 d2 | c4!mp! d2 | e2 (ef) (ge) | d2 B2 G2 | A2 (Ac) (BA) | G2 E2"^cresc." B2 | %13
w: brave sons of|Us- na be-|trayed; For|ev- 'ry _ fond *|eye he hath|wak- en'd * a _|tear in, A|
 e2 (ef) (ge) | d2 B2 G2 |"^rall." (AG) (Fe)({ce} d>c) |"^A"!p! !fermata!c4 ||"^a Tempo" z2 | z6 | %19
w: drop from * his *|heart- wounds shall|weep * o'er * * *|blade.|||
 z6 | z6 | z2 z2!p! G2 | c2 (cd) (ec) | d2 G2 G2 | =A2 c2 =B2 | c4 d>d | e2"^cresc." B2 G2 | %27
w: ||When|U- ladh's * three *|cham- pions lay|sleep- ing in|gore, By the|bil- lows of|
 B4 e2 | a2 e2 c2 | e4 B2 | e2 (ef) (ge) | d2 B2 e2 | e3 g (fe) | f4!f! g2 | g4 ce | d2 G2 z!p! f | %36
w: war, the|bil- lows of|war, Have|waft- ed * these *|he- roes to|vic- to- ry's *|shore, We|swear to re-|venge them: No|
 e2 c2 c2 | B2 G2 G2 | c2"^poco a poco rall." (cd) (ec) | d2 g2 z f | e2 c2 d2 | c4 G2 | G2 c3 e | %43
w: joy shall be|tast- ed, The|harp shall * be *|si- lent, the|maid- en un-|wed, Our|halls shall be|
 g4 G2 | c2 A3 c | e2 e2!f! B2 |"^a tempo." e2 (ef) (ge) | d2 B2 G2 | (AG F)e (d>c) | %49
w: mute, our|fields shall lie|wast- ed, Till|ven- * geance is _|wreak'd on the|mur- * * der- er's *|
 !fermata!c4 ||!f! G2 | c2 (cd) (ec) | d2 g3 f | e2"^dim." c2 c2 | B2 G2!p! G2 | c2 (cd) (ec) | %56
w: head.|Yes,|mon- arch! * Tho' *|sweet are our|home re- col-|lec- tions, Tho'|sweet we _ the _|
 d2 g3 f | e2 c2 d2 | c4"^poco rall." d2 | e2 (ef) (ge) | d2 B2 z G | A2 (Ac) (BA) | %62
w: tears that from|ten- der- ness|fall; Tho'|sweet are _ our _|friend- ships, our|hopes, our _ af- *|
 G2 E2"^a tempo" !fermata!z3/2!ff! B/ | e2 (ef) (gf) | !>!d2 !>!B !fermata!z"^più lento." G2 | %65
w: fec- tions, Re-|venge on _ a _|ty- rant is|
 (!>!A!>!G !>!F)e({!fermata!c!fermata!e} !fermata!d>c) | !fermata!c4 || %67
w: sweet- * * est * *|all!|
V:2
!f! G2 | c2 G2 G2 | G2 G3 A | A2 A2 A2 | G2 E2 G2 | G2 G2 G2 | G2 G3 G | G2 A2 G2 | G4!mp! B2 | %9
w: A-|veng- ing and|bright falls the|swift sword of|E- rin On|him who the|brave sons of|Us- na be-|trayed; For|
 B2 (BA) (GB) | F2 F2 E2 | E2 E2 B,2 | B,2 E2"^cresc." E2 | G2 G2 G2 | G2 G2 E2 | %15
w: ev- 'ry _ fond *|eye he hath|wak- en'd a|tear in, A|drop from his|heart- wounds shall|
"^rall." (FC) (Cc) =B2 | !fermata!G4 ||!p! G,>G, | C2 (CD) (EC) | D2 G3 F | E2 C2 C2 | %21
w: weep * * o'er her|blade.|By the|red cloud * that *|hung o- ver|Co- nor's dark|
 B,2 G,2 G,2 | C2 (CD) (EC) | D2 G2 F2 | E2 C2 D2 | C4 F>F | E2"^cresc." E2 E2 | B,4 B2 | %28
w: dwell- ing, When|U- * ladh's three *|cham- pions lay|sleep- ing in|gore, By the|bil- lows of|war, the|
 A2 A2 A2 | E4 G2 | B2 G2 =A2 | B2 F2 E2 | (E2 A)A G2 | A4!f! G2 | G4 GG | G2 G2 z!p! d | %36
w: bil- lows of|war, Have|waft- ed these|he- roes to|vic- * to- ry's|shore, We|swear to re-|venge them: No|
 c2 E2 E2 | E2 B,2 E2 | F2 F2 G2 | F2 D2 z G | G2 F2 F2 | (F2 E2) D2 | E2 (EF) (GE) | D4 G2 | %44
w: joy shall be|tast- ed, The|harp shall be|si- lent, the|maid- en un-|wed, * Our|halls shall * be *|mute, our|
 E2 E3 E | E2 E2!f! B2 | B3 B =A2 | B2 F2 G2 | F3 c =B2 | !fermata!G4 ||!f! G2 | G2 G2 z2 | %52
w: fields shall lie|wast- ed, Till|ven- geance is|wreak'd on the|mur- der- er's|head.|Yes,|mon- arch!|
 G2 e3 d | c2"^dim." A2 A2 | G2 E2!p! G2 | (A3 G) G^F | G2 G3 G | G3 G (GF) | (F2 E2) F2 | %59
w: Sweet we our|home re- col-|lec- tions, Tho'|sweet _ are the|tears that from|ten- der- ness *|fall; _ Tho'|
 G2 B2 G2 | B2 F2 z E | E4 EE | E2 E2 !fermata!z3/2!ff! B/ | e2 z2 BB | !>!B2 !>!B !fermata!z G2 | %65
w: sweet are our|friend- ships, our|hopes, our af-|fec- tions, Re-|venge on a|ty- rant is|
 (!>!A!>!G !>!F)c !fermata!=B2 | !fermata!G4 || %67
w: sweet- * * est of|all!|
V:3
!f! G2 | c2 (ef) (ge) | d2 d3 d | e2 e2 f2 | B2 B2 d2 | c2 c2 c2 | =B2 c2 d2 | c2 f2 d2 | %8
w: A-|veng- ing * and *|bright falls the|swift sword of|E- rin On|him who the|brave sons of|Us- na be-|
 e4!mp!!mp! f2 | e2 B2 B2 | B2 d2 B2 | A2 E2 F2 | E2 G2"^cresc." B2 | c2 (cd) (ec) | B2 d2 e2 | %15
w: trayed; For|ev- 'ry fond|eye he hath|wak- en'd a|tear in, A|drop from * his *|heart- wounds shall|
"^rall." (cB) A2 f2 | !fermata!e4 ||!p! G>G | G6 | G6 | G4 G2 | G6 | G4 G2 | G6- | G6 | G4 B>B | %26
w: weep * o'er her|blade.|By the|red|cloud|o- ver|Co-|nor's dark|dwell-||ing, By the|
 B2"^cresc." (GA) (BG) | F2 B2 _d2 | c2 (ce) (=dc) | B2 G2 d2 | e3 e e2 | c2 d2 B2 | (cB A)e c2 | %33
w: bil- lows * of *|war, which so|of- ten, * high *|swell- ing, Have|waft- ed these|he- roes to|vic- * * to- ry's|
 c4!ff! G2 | c2 (cd) e2 | d2 g4- |!>(! g6-!>)! | g2 z2!p! B2 | A2 A2 c2 | c2 =B2 z d | c2 c2 =B2 | %41
w: shore, We|swear to _ re-|venge them:|_|* The|harp shall be|si- lent, the|maid- en un-|
 G4 =B2 | c2 (cd) (ec) | B2 d2 B2 | c2 (ce) (dc) | B2 G2!f! B2 | e3 e e2 | f2 d2 e2 | (cB A)A f2 | %49
w: wed, Our|halls shall * be *|mute, and our|fields shall * lie *|wast- ed, Till|ven- geance is|wreak'd on the|mur- * * der- er's|
 !fermata!e4 ||!f! G2 | e2 e2 z2 | d2 c3 d | e2"^dim." e2 f2 | B2 B2!p! d2 | e3 d c2 | =B2 B2 B2 | %57
w: head.|Yes,|mon- arch!|Sweet are our|home re- col-|lec- tions, Tho'|sweet are the|tears that from|
 c2 c2 =B2 | G4 _B2 | B2 B2 B2 | f2 d2 z B | A4 cA | B2 B2 !fermata!z3/2!ff! B/ | e2 z2 gg | %64
w: ten- der- ness|fall; Tho'|sweet are our|friend- ships, our|hopes, our af-|fec- tions, Re-|venge on a|
 !>!f2 !>!f !fermata!z G2 | (!>!A!>!G !>!F)A !fermata!f2 | !fermata!e4 || %67
w: ty- rant is|sweet- * * est of|all!|
V:4
!f! G,2 | C2 C2 C2 | B,2 B,3 B, | C2 C,2 D,2 | E,2 G,2 G,2 | E,2 (E,D,) (C,E,) | G,2 =A,2 =B,2 | %7
w: A-|veng- ing and|bright falls the|swift sword of|E- rin On|him who * the *|brave sons of|
 C2 F,2 G,2 | C4 B,2 | G,2 (G,F,) (E,G,) | B,2 B,,2 E,2 | C,2 C,2 D,2 | E,2 B,2"^cresc." G,2 | %13
w: Us- na be-|trayed; For|ev- 'ry _ fond *|eye he hath|wak- en'd a|tear in, A|
 C,2 C,2 (C,E,) | G,2 G,2 C2 |"^rall." F,2 F,2 G,2 | !fermata!C,4 ||!p! G,>G, | [C,E,]6 | D,6 | %20
w: drop from his *|heart- wounds shall|weep o'er her|blade.|By the|red||
 [A,,C,]4 [A,,C,]2 | [G,,D,]6 | [G,,E,]4 [G,,C,]2 | (=B,,6 | C,2 E,2 D,2) | E,4 B,,>B,, | %26
w: o- ver|Co-|nor's dark|||* By the|
 G,2"^cresc." (E,F,) (G,E,) | D,2 B,,2 G,2 | A,2 (A,C) (B,A,) | G,2 E,2 B,2 | C3 C C2 | %31
w: bil- lows * of *|war, which so|of- ten, * high *|swell- ing, Have|waft- ed these|
 B,2 B,2 G,2 | (A,G, F,)F, C,2 | F,4!ff! G,2 | E,2 (E,G,) C2 | =B,2 G,4- |!>(! G,6-!>)! | %37
w: he- roes to|vic- * * to- ry's|shore, We|swear to _ re-|venge them:|_|
 G,2 z2!p! G,2 | F,2 F,2 E,2 | A,2 G,2 z =B,, | C,2 A,2 G,2 | C,4 G,2 | G,2 E,2 C,2 | G,2 B,2 G,2 | %44
w: * The|harp shall be|si- lent, the|maid- en un-|wed, Our|halls shall be|mute, and our|
 A,2 (A,C) (B,A,) | G,2 E,2!f! B,2 | C3 C C2 | B,2 B,2 E,2 | F,3 F, A,2 | !fermata!C4 ||!f! G,2 | %51
w: fields shall * lie *|wast- ed, Till|ven- geance is|wreak'd on the|mur- der- er's|head.|Yes,|
 C2 C,2 z2 | =B,2 =A,3 B, | C2"^dim." C,2 D,2 | E,2 G,2!p! B,2 | C3 B, A,2 | (G,F,) E,2 D,2 | %57
w: mon- arch!|Sweet are our|home re- col-|lec- tions, Tho'|sweet are the|tears * that from|
 E,2 A,2 G,2 | C,4 B,,2 | E,2 G,2 E,2 | B,2 B,,2 z E, | C,4 A,,C, | E,2 G,2 !fermata!z3/2!ff! B,/ | %63
w: ten- der- ness|fall; Tho'|sweet are our|friend\- ships our|hopes, our af-|fec- tions, Re-|
 E2 z2 EE, | !>!B,2 !>!D !fermata!z G,2 | (!>!A,!>!G, !>!F,)F, !fermata!G,2 | !fermata!C4 || %67
w: venge on a|ty- rant is|sweet- * * est of|all!|
V:5
 x2 | x6 | x6 | x6 | x6 | x6 | x6 | x6 | x6 | x6 | x6 | x6 | x6 | x6 | x6 | x6 | x4 || x2 | x6 | %19
w: |||||||||||||||||||
 (B,,4 G,,2) | x6 | x6 | x6 | G,,6- | G,,6 | C,4 x2 | x6 | x6 | x6 | x6 | x6 | x6 | x6 | x6 | x6 | %35
w: cloud *||||dwell-||ing||||||||||
 x6 | x6 | x6 | x6 | x6 | x6 | x6 | x6 | x6 | x6 | x6 | x6 | x6 | x6 | x4 || x2 | x6 | x6 | x6 | %54
w: |||||||||||||||||||
 x6 | x6 | x6 | x6 | x6 | x6 | x6 | x6 | x6 | x6 | x6 | x6 | x4 || %67
w: |||||||||||||

